X: 9589
T: Davie Work
R: reel
M: 4/4
K: Amajor
E|:A2cA GABc|dFBA GBeg|a2ga fedc|1 dBed cAAE:|2 dBed cAAg||
|:aAag fedc|bBba gefg|aAag fedc|dfeg aAAg|
aAag fedc|bBba gfed|cAdB ecfd|1 eagb aAAg:|2 eagb aAA||

